X: 419
T: Mantian xingxing yikeming
L: 1/16
M: 2/4
K: Bb
c' c' c' f'2< c'2 c' [I:setbarnb 1]| 
c' b g fc4 | 
g2f4f b | 
g f g dc4 | 
c' c' c' f'2< c'2 c' | 
c' b g fc4 | 
g2f4f b | 
g2f6 |]

@@@ Tune index: 9293
